X:1
T:C Major Stephen Jenks, 1807
T:Nahum Tate, 1700    86. 86. (C. M.)
T:Glad Tidings
T:Transcribed from The Hartford Collection, 1807.
%%score [ 1 2 3 4 ]
L:1/8
Q:1/4=150
M:4/4
K:C
V:1 treble nm="Voice"
V:2 treble nm="Voice"
V:3 treble-8 nm="Tenor"
V:4 bass nm="Bass"
V:1
 c4 | c2 d2 c2 B2 | c2 B2 c2 f2 | e2 d2 c2 B2 | c6 z2 | z8 | z8 | z4 z2 G2 | c2 e2 d2 e2 | %9
w: 1.~Fear|not, said he, for|migh- ty dread Had|seized their trou- bled|mind;|||Glad|ti- dings of great|
w: 2.~Thus|spoke the ser- aph,|and forth- with Ap-|peared a shi- ning|throng|||Of|an- gels prai- sing|
w: 3.~All|glo- ry be to|God on high, And|to the earth be|peace;|||Good|will hence- forth from|
 B2 d2 B2 d2 | e2 c2 d2 c2 | B6 B2 | c2 G2 c2 B2 | c2 G2 c2 B2 | c2 c2 c2 B2 | c8 |] %16
w: joy I bring To|you and all man-|kind, Glad|ti- dings of great|joy I bring To|you and all man-|kind.|
w: God and thus ad-|dressed their joy- ful|song, Of|an- gels prai- sing|God, and thus ad-|dressed their joy- ful|song.|
w: heav'n to men Be-|gin and ne- ver|cease; Good-|will hence- forth from|heav'n to men Be-|gin and ne- ver|cease.|
V:2
 E4 | E2 G2 E2 G2 | E2 D2 G2 D2 | G2 A^F G2 G2 | G6 z2 | z8 | z4 z2 G2 | E2 G2 E2 G2 | %8
w: ||||||Glad|ti- dings of great|
w: ||||||Of|an- gels prai- sing|
w: ||||||Good|will hence- forth from|
 G2 G2 G2 G2 | E2 G2 E2 G2 | G8- | G6 G2 | G2 G2 G2 G2 | G2 G2 G2 G2 | A2 A2 G2 F2 | E8 |] %16
w: joy I bring To|you and all man-|kind,~|_ _|||||
w: God and thus Ad-|dressed their joy- ful|song,~|_ _|||||
w: heav'n to men Be-|gin and ne- ver|cease,~|_ _|||||
V:3
 G4 | c2 B2 c2 d2 | e2 f2 e2 d2 | c2 f2 e2 d2 | c6 z2 | z4 z2 G2 | c2 e2 d2 e2 | B2 d2 B2 d2 | %8
w: 1.~Fear|not, said he, for|migh- ty dread Had|seized their trou- bled|mind;|Glad|ti- dings of great|joy I bring To|
w: 2.~Thus|spoke the ser- aph,|and forth- with Ap-|peared a shi- ning|throng|Of|An- gels prai- sing|God and thus Ad-|
w: 3.~All|glo- ry be to|God on high, And|to the earth be|peace;|Good|will hence- forth from|heav'n to men Be-|
 e2 c2 d2 c2 | B6 z2 | z8 | z4 z2 d2 | e2 d2 e2 d2 | e2 d2 e2 d2 | e2 f2 e2 d2 | c8 |] %16
w: you and all man-|kind,||Glad|ti- dings of great|joy I bring To|you and all man-|kind.|
w: dressed their joy- ful|song,||Of|an- gels prai- sing|God and thus Ad-|dressed their joy- ful|song.|
w: gin and ne- ver|cease;||Good|will hence- forth from|heav'n to men Be-|gin and ne- ver|cease.|
V:4
 C,4 | C,2 G,2 C,2 G,2 | C2 D2 C2 G,2 | E,2 F,2 G,2 G,2 | C,6 C,2 | C,2 G,2 E,2 G,2 | %6
w: ||||* Glad|ti- dings of great|
w: ||||* Of|an- gels prai- sing|
w: ||||* Good|will hence- forth from|
 A,2 C2 B,2 C2 | G,2 G,2 G,2 G,2 | G,8- | G,6 G,2 | G,2 G,2 G,2 C2 | G,6 G,2 | C2 B,2 C2 G,2 | %13
w: joy I bring To|you and all man-|kind,~|_ To|you and all man-|kind, *||
w: God, and thus Ad-|dressed their joy- ful|song,~|_ Ad-|dressed their joy- ful|song, *||
w: heav'n to men Be-|gin and ne- ver|cease,~|_ Be-|gin and ne- ver|cease, *||
 C2 B,2 C2 G,2 | C2 F,2 G,2 G,2 | C,8 |] %16
w: |||
w: |||
w: |||

